!! 00010] TT[TB
!! Eigene Aufnahme
!!!OTL: Diao shi de yanzhao At the table with a carved shape of eight lions
!!!ARE: Neimeng
!! Ethnic Group: Menggu
!! MM, S. 1687
!!!SCT: C0583
!!!YEM: Copyright 1995, estate of Helmut Schaffrath.
**kern
*ICvox
*Ivox
*M2/4
*k[]
*C:
{8a#
8g
4a
=1
8a
8cc
8a
8g}
=2
{8e
8e
8e
8a
=3
8e
8c
4A}
=4
{8A
8A
8A
16c
16d
=5
8e
8e
8e
8e}
=6
{8e
8e
8.a
16cc
=7
8e
8c
4A}
=8
{8a#
8g
4a
=9
8a
8cc
8a
8g}
=10
{8e
4a
8cc
=11
2a}
==
!!!AGN: NN
!! Saenger: Chao Lun Batou, der das Buch nur zum Nachschlagen
!!    benutzte und ansonsten auswendig sang. Da er aus dem Osten der
!!    Neimeng kommt, kennt er nicht so viele Lieder des Westens.
!!    Alle Lieder wurden mit erkaelteter, halber Stimme in meinem
!!    Zimmer gesungen. FOTO VORHANDEN (DIAS)  31.3.87  VARIANTE ODER
!!    ANDERES LIED. --- Verzierungen auf den letzten beiden Noten.
!!!ONB: ESAC (Essen Associative Code) Database: CHINA
!!!AMT: simple duple
!!!AIN: vox
!!!EED: Helmut Schaffrath
!!!EEV: 1.0
*-
